X: 16
T:La Milanoisse
T:The girl from Milan
M:6/4
L:1/4
R:Galliard
N:Barlines partly editorial on SFM's part
B:Thoinot Arbeau : Orchesographie, 1589
Z:Steve Mansfield February 2001
K:GDor
z F/G/A G/F/G A/B/ | A G/F/G A/B/Az |
G2 F2 zG ||
z G/A/B A/G/A B/c/ | B A/G/A B/c/B z |
A2 G2 zF ||

